svg/odontology_positive.svg

<?xml version="1.0" encoding="UTF-8" standalone="no"?>
<!-- Created with Inkscape (http://www.inkscape.org/) -->
<svg id="svg8" xmlns:rdf="http://www.w3.org/1999/02/22-rdf-syntax-ns#" xmlns="http://www.w3.org/2000/svg" xmlns:osb="http://www.openswatchbook.org/uri/2009/osb" height="48" width="48" version="1.1" xmlns:cc="http://creativecommons.org/ns#" viewBox="0 0 12.7 12.7" xmlns:dc="http://purl.org/dc/elements/1.1/">
 <title id="title4753">UIO-icon</title>
 <metadata id="metadata5">
  <rdf:RDF>
   <cc:Work rdf:about="">
    <dc:format>image/svg+xml</dc:format>
    <dc:type rdf:resource="http://purl.org/dc/dcmitype/StillImage"/>
    <dc:title>UIO-icon</dc:title>
    <dc:creator>
     <cc:Agent>
      <dc:title>Joaquín Urbano</dc:title>
     </cc:Agent>
    </dc:creator>
    <dc:rights>
     <cc:Agent>
      <dc:title>GPL</dc:title>
     </cc:Agent>
    </dc:rights>
   </cc:Work>
  </rdf:RDF>
 </metadata>
 <g id="layer1" transform="translate(0,-284.3)">
  <path id="path9693-6" d="m34.562 4.002c0-0.0241-2.318 0.2115-4.546 0.7421-0.352 0.0837 0.31 0.9196-0.227 1.209-0.909 0.4903-1.456-0.6321-1.781-0.6191-1.484 0.0593-2.173 1.9117-4.125 1.8555-1.843-0.0048-2.589-1.7306-3.883-1.75-0.456-0.0069-0.867 0.8321-1.705 0.4277-0.305-0.1471-0.012-1.0168-0.32-1.1055-11.978-3.4418-14.339 6.6533-8.3949 19.234 3.2929 6.596 3.9039 15.619 7.4199 20.004 3.87-19.5 9.116-19.492 13 0 2.914-1.18 4.129-8.293 5.475-14.004a9.3692 9.3692 0 0 1 -3.291 0.602 9.3692 9.3692 0 0 1 -9.37 -9.369 9.3692 9.3692 0 0 1 9.37 -9.37 9.3692 9.3692 0 0 1 8.394 5.217c2.362-7.4598 0.357-12.964-6.016-13.074zm-2.378 9.978a7.2478 7.2478 0 0 0 -7.246 7.249 7.2478 7.2478 0 0 0 7.246 7.248 7.2478 7.2478 0 0 0 7.248 -7.248 7.2478 7.2478 0 0 0 -7.248 -7.249zm-1.016 1.372h2.031c0.074 0 0.133 0.059 0.133 0.132v4.596h4.598c0.073 0 0.131 0.059 0.131 0.133v2.033c0 0.074-0.058 0.133-0.131 0.133h-4.598v4.596c0 0.073-0.059 0.132-0.133 0.132h-2.031c-0.073 0-0.133-0.059-0.133-0.132v-4.596h-4.597c-0.074 0-0.131-0.059-0.131-0.133v-2.033c0-0.074 0.057-0.133 0.131-0.133h4.597v-4.596c0-0.073 0.06-0.132 0.133-0.132z" transform="matrix(.26458 0 0 .26458 0 284.3)" fill="#333"/>
 </g>
</svg>

<svg width="48" height="48" viewBox="0 0 48 48" fill="none" xmlns="http://www.w3.org/2000/svg">
<path d="M34.5616 4.00192C34.5616 3.97782 32.2436 4.21342 30.0156 4.74401C29.6636 4.82771 30.3256 5.6636 29.7886 5.95299C28.8797 6.44329 28.3327 5.3209 28.0077 5.3339C26.5237 5.3932 25.8347 7.24558 23.8827 7.18938C22.0397 7.18458 21.2937 5.4588 19.9998 5.4394C19.5438 5.4325 19.1328 6.27149 18.2948 5.86709C17.9898 5.72 18.2828 4.85031 17.9748 4.76161C5.99694 1.31985 3.63597 11.4148 9.57999 23.9954C12.8729 30.5913 13.4838 39.6142 16.9998 43.9991C20.8698 24.4994 26.1157 24.5074 29.9996 43.9991C32.9136 42.8191 34.1286 35.7062 35.4746 29.9953C34.4226 30.3918 33.3078 30.5957 32.1836 30.5973C30.9532 30.5974 29.7348 30.3551 28.598 29.8844C27.4612 29.4136 26.4283 28.7235 25.5582 27.8535C24.6881 26.9835 23.9979 25.9507 23.527 24.8139C23.0561 23.6772 22.8138 22.4588 22.8137 21.2284C22.8136 19.9979 23.0559 18.7794 23.5268 17.6426C23.9976 16.5057 24.6878 15.4728 25.5579 14.6027C26.428 13.7326 27.4609 13.0424 28.5978 12.5715C29.7346 12.1007 30.9531 11.8584 32.1836 11.8585C33.9299 11.8594 35.6412 12.3484 37.1244 13.2702C38.6076 14.192 39.8036 15.51 40.5775 17.0755C42.9395 9.61575 40.9345 4.11162 34.5616 4.00162V4.00192ZM32.1836 13.9798C30.2615 13.9803 28.4183 14.7442 27.0594 16.1037C25.7006 17.4631 24.9374 19.3066 24.9377 21.2287C24.9376 23.1506 25.701 24.9939 27.0598 26.3531C28.4186 27.7123 30.2617 28.4761 32.1836 28.4766C33.1354 28.4766 34.0779 28.2892 34.9573 27.925C35.8367 27.5607 36.6357 27.0268 37.3087 26.3538C37.9818 25.6808 38.5156 24.8818 38.8799 24.0024C39.2441 23.123 39.4315 22.1805 39.4315 21.2287C39.4317 20.2768 39.2443 19.3342 38.8801 18.4547C38.516 17.5752 37.9821 16.7761 37.3091 16.103C36.636 15.4298 35.837 14.8958 34.9575 14.5315C34.0781 14.1673 33.1355 13.9798 32.1836 13.9798ZM31.1676 15.3518H33.1986C33.2726 15.3518 33.3316 15.4108 33.3316 15.4838V20.0797H37.9295C38.0025 20.0797 38.0605 20.1387 38.0605 20.2127V22.2457C38.0605 22.3197 38.0025 22.3787 37.9295 22.3787H33.3316V26.9746C33.3316 27.0476 33.2726 27.1066 33.1986 27.1066H31.1676C31.0946 27.1066 31.0346 27.0476 31.0346 26.9746V22.3787H26.4377C26.3637 22.3787 26.3067 22.3197 26.3067 22.2457V20.2127C26.3067 20.1387 26.3637 20.0797 26.4377 20.0797H31.0346V15.4838C31.0346 15.4108 31.0946 15.3518 31.1676 15.3518Z" fill="#333333"/>
</svg>
